src/assets/images/objective-icon.svg

<?xml version="1.0" encoding="iso-8859-1"?>
<!-- Generator: Adobe Illustrator 19.0.0, SVG Export Plug-In . SVG Version: 6.00 Build 0)  -->
<svg version="1.1" id="Capa_1" xmlns="http://www.w3.org/2000/svg" xmlns:xlink="http://www.w3.org/1999/xlink" x="0px" y="0px"
	 viewBox="0 0 490 490" style="enable-background:new 0 0 490 490;" xml:space="preserve">
<path d="M488.659,72.311L490,51.764l-49.146-3.137L437.678,0l-20.765,1.327l3.507,53.716l-15.057,14.898l-2.329-35.663
	l-20.766,1.327l3.507,53.717l-12.885,12.749C333.293,67.331,281.236,46.2,224.275,46.2C100.611,46.2,0,145.742,0,268.098
	S100.611,490,224.275,490c123.663,0,224.264-99.547,224.264-221.902c0-58.606-23.091-111.969-60.731-151.675l13.348-13.208
	l52.859,3.374l1.341-20.547l-34.611-2.209l15.055-14.896L488.659,72.311z M427.732,268.098
	c0,111.007-91.274,201.316-203.457,201.316c-112.193,0-203.468-90.309-203.468-201.316c0-111.002,91.275-201.31,203.468-201.31
	c51.221,0,98.077,18.834,133.882,49.861l-29.422,29.112c-28.221-23.628-64.686-37.9-104.46-37.9
	c-89.303,0-161.955,71.883-161.955,160.237c0,88.359,72.652,160.243,161.955,160.243c89.293,0,161.945-71.883,161.945-160.243
	c0-41.605-16.113-79.553-42.484-108.068l29.356-29.046C406.969,166.955,427.732,215.169,427.732,268.098z M224.101,278.401
	l62.381-61.723c11.786,13.936,18.896,31.868,18.896,51.419c0,44.25-36.381,80.252-81.103,80.252
	c-44.724,0-81.115-36.002-81.115-80.252s36.391-80.247,81.115-80.247c17.473,0,33.659,5.513,46.914,14.849l-61.798,61.146
	L224.101,278.401z M286.07,187.975c-17.155-12.984-38.579-20.711-61.795-20.711c-56.204,0-101.922,45.236-101.922,100.834
	c0,55.604,45.718,100.839,101.922,100.839c56.192,0,101.91-45.235,101.91-100.839c0-25.227-9.413-48.319-24.945-66.021
	l27.774-27.481c22.61,24.773,36.398,57.573,36.398,93.502c0,77.005-63.316,139.656-141.138,139.656
	c-77.834,0-141.148-62.65-141.148-139.656c0-77.004,63.315-139.65,141.148-139.65c34.038,0,65.301,11.985,89.704,31.913
	L286.07,187.975z"/>
<g>
</g>
<g>
</g>
<g>
</g>
<g>
</g>
<g>
</g>
<g>
</g>
<g>
</g>
<g>
</g>
<g>
</g>
<g>
</g>
<g>
</g>
<g>
</g>
<g>
</g>
<g>
</g>
<g>
</g>
</svg>

<?xml version="1.0" encoding="utf-8"?>
<svg version="1.1" id="Capa_1" x="0px" y="0px" viewBox="0 0 490 490" style="enable-background:new 0 0 490 490;" xmlns="http://www.w3.org/2000/svg">
  <path d="M 420.745 83.833 L 406.088 83.373 L 405.363 69.941 L 403.034 34.278 L 382.268 35.605 L 385.775 89.322 L 372.89 102.071 C 333.293 67.331 281.236 46.2 224.275 46.2 C 100.611 46.2 0 145.742 0 268.098 C 0 390.454 100.611 490 224.275 490 C 347.938 490 448.539 390.453 448.539 268.098 C 448.539 209.492 425.448 156.129 387.808 116.423 L 401.156 103.215 L 454.015 106.589 L 455.356 86.042 L 420.745 83.833 Z M 427.732 268.098 C 427.732 379.105 336.458 469.414 224.275 469.414 C 112.082 469.414 20.807 379.105 20.807 268.098 C 20.807 157.096 112.082 66.788 224.275 66.788 C 275.496 66.788 322.352 85.622 358.157 116.649 L 373.092 130.984 C 406.969 166.955 427.732 215.169 427.732 268.098 Z M 224.101 278.401 L 286.482 216.678 C 298.268 230.614 305.378 248.546 305.378 268.097 C 305.378 312.347 268.997 348.349 224.275 348.349 C 179.551 348.349 143.16 312.347 143.16 268.097 C 143.16 223.847 179.551 187.85 224.275 187.85 C 241.748 187.85 257.934 193.363 271.189 202.699 L 209.391 263.845 L 224.101 278.401 Z M 286.07 187.975 C 268.915 174.991 247.491 167.264 224.275 167.264 C 168.071 167.264 122.353 212.5 122.353 268.098 C 122.353 323.702 168.071 368.937 224.275 368.937 C 280.467 368.937 326.185 323.702 326.185 268.098 C 326.185 242.871 316.772 219.779 301.24 202.077 L 286.07 187.975 Z" style="fill: rgb(0, 0, 53);"/>
  <g/>
  <g/>
  <g/>
  <g/>
  <g/>
  <g/>
  <g/>
  <g/>
  <g/>
  <g/>
  <g/>
  <g/>
  <g/>
  <g/>
  <g/>
  <path style="paint-order: stroke; stroke: rgb(0, 0, 0); fill: rgb(0, 0, 53);" d="M 283.744 191.374 L 358.953 117.372 L 371.488 127.7 L 296.279 203.977"/>
</svg>
